X:1
T:Title
%%score { ( 1 3 ) | ( 2 4 ) }
L:1/8
Q:1/4=100
M:4/4
K:F
V:1 treble nm="Grand Piano"
V:3 treble 
V:2 bass 
V:4 bass 
V:1
 A>c c>c c2 A2 | B>c c>c c4 | [Ed]2 [Ed]2 [EG][EA] [EB]2 | c2 c2 FG A2 | A>c c>c c2 A2 | %5
w: Adam~Geibel * * * * *|||||
 G>c c>c c4 | =BAGA B2 d2 | [CEc]8 | z2 c'a c'afa | z2 c'b c'b .g2 | z2 [EGc]2 [EGc]4 | %11
w: ||||||
 z2 [FAc]2 [FAc]4 | z2 c'a c'afa | z2 ge ge .c2 | z2 [DFG]2 [DFG]2 [DFG]2 | %15
w: ||||
[M:5/4] [EGc]2 [Bd]2 [Bc]6 |[M:4/4] [Bd]d[Bd]d [Bd]2 [Ac]=B | z2 [ac']c' [ac']b [fa]2 | %18
w: |||
 [Bd]d[Bd]d [Bd]2 [Ac]=B | z2 [ac']c' [ac']b [fa]2 | FFFF F2 EF |[M:5/4] c2 [Fc]2 [Fd]6 | %22
w: ||||
[M:4/4] [Fc]2 c'c' c'c' c'2 | [Ec]2 c'c' c'c' c'2 | z2 ff ffff | f8 |] %26
w: ||||
V:2
 [F,CF]>[F,A,F] [F,A,F]>[F,A,F] [F,A,F]2 [^F,C_E]2 | [G,CE]>[G,B,E] [G,B,E]>[G,B,E] [G,B,E]4 | %2
 [C,B,]2 [C,B,]2 [C,B,][C,A,] [C,G,]2 | [F,A,F]2 [F,A,F]2 [F,A,][F,B,F] [F,CF]2 | %4
 [F,CF]>[F,A,E] [F,A,F]>[F,A,F] [F,A,F]2 [^F,C_E]2 | [G,CE]>[G,EG] [G,EG]>[G,EG] [G,EG]4 | %6
 [G,DF][F,CF][G,=B,F][G,CF] [G,DF]2 [G,B,F]2 | C,8 | F,,2 C,2 [F,A,]2 C,2 | %9
 C,,2 C,2 [E,B,]2 z[K:treble] b | C,2 B,2 B,A, G,2 | C,2 A,2 A,G, F,2 | F,,2 C,2 [F,A,]2 C,2 | %13
 G,,2 G,2[K:treble] [CE]2 z e | G,2 =B,2[K:bass] B,A, G,2 |[M:5/4] z2 E2 E6 | %16
[M:4/4] z[K:treble] B z B[K:bass] [E,B,]2 z _A | F,,2 z[K:treble] a z g[K:bass] C,2 | %18
 z[K:treble] B z B[K:bass] [E,B,]2 z _A | F,,2 z[K:treble] a z g[K:bass] C,2 | %20
 [^C,_A,=B,][C,A,B,][C,A,B,][C,A,B,] [C,A,B,]2 [C,A,B,][C,A,B,] | %21
[M:5/4] [C,A,C]2 [C,A,]2 [=B,,_A,]6 |[M:4/4] [C,A,]2[K:treble] cc cc c2 | %23
 [C,B,]2[K:treble] cc cc c2 | [A,C]4 [B,D]4 | [A,C]8 |] %26
V:3
 x8 | x8 | x8 | x8 | x8 | x8 | x8 | x8 | c8 | c8 | x8 | x8 | c8 | G8 | x8 |[M:5/4] x10 | %16
[M:4/4] x8 | [Ac]8 | x8 | [Ac]8 | x8 |[M:5/4] x10 |[M:4/4] x8 | x8 | F8- | F8 |] %26
V:4
 x8 | x8 | x8 | x8 | x8 | x8 | x8 | x8 | x8 | z4 z2 C,2[K:treble] | x8 | x8 | x8 | %13
 z4[K:treble] z2 G,2 | x4[K:bass] x4 |[M:5/4] C2- C2- C6 | %16
[M:4/4] C,,2[K:treble] C,2[K:bass] z2 C,2 | z2 C,2[K:treble] [F,A,]2[K:bass] z2 | %18
 C,,2[K:treble] C,2[K:bass] z2 C,2 | z2 C,2[K:treble] [F,A,]2[K:bass] z2 | x8 |[M:5/4] x10 | %22
[M:4/4] x2[K:treble] x6 | x2[K:treble] x6 | F,8- | F,8 |] %26

